usr/share/icons/biglinux-icons-material/symbolic/status/orientation-landscape-inverse-symbolic.svg

<svg xmlns="http://www.w3.org/2000/svg" width="16" height="16"><path d="M2 3C1 3 1 4 1 4v8c0 1 1 1 1 1h12c1 0 1-1 1-1V4c0-1-1-1-1-1Zm2 3h8l-4 4Z" style="fill:#dedede"/></svg>

<svg xmlns="http://www.w3.org/2000/svg" width="16" height="16" version="1.1">
 <path style="fill:#dedede" d="M 2,3 C 1,3 1,4 1,4 V 12 C 1,13 2,13 2,13 H 14 C 15,13 15,12 15,12 V 4 C 15,3 14,3 14,3 Z M 4,6 H 12 L 8,10 Z"/>
</svg>
